X:938
T:Tiriodh Tir Moghraidh
C:Joe Buchanan's Scottish Tome - Page 548.1
I:548 1
Z:Carl Allison
C:D. A. Chisholm
R:Waltz
L:1/4
M:3/4
K:A
E/A/ | c2 c | d c B | A3 | E E E | F2 A | A G F | E3 | C E F |
A2 A | B c d | e2 e | f e d | c2 A | A B c | d3 | d c d |
e2 e | f e d | c2 A | A B c | d2 c | B2 A | G2 E | E F G |
A2 A | B c d | e2 e | f e d | c2 B | A2 G | A3 | A2 |]

